src/icons/icons_set_02/012-smiley-bien.svg

<svg height="50" viewBox="0 0 50 50" width="50" xmlns="http://www.w3.org/2000/svg"><path d="m15.2555553 17.3868627c0-1.3410457 1.0871323-2.428178 2.428178-2.428178s2.428178 1.0871323 2.428178 2.428178-1.0871323 2.428178-2.428178 2.428178c-1.3388577-.0030885-2.4225802-1.0893168-2.4225766-2.428178zm11.0038194 0c0-1.3410457 1.0871323-2.428178 2.428178-2.428178s2.428178 1.0871323 2.428178 2.428178-1.0871323 2.428178-2.428178 2.428178c-1.3388577-.0030885-2.4225803-1.0893168-2.4225767-2.428178zm5.7357653 9.939566c-1.503958 3.478428-5.024396 5.7245626-8.9621333 5.7245626-4.0301594 0-7.5618-2.260138-9.023748-5.7525693-.2490292-.5985982.0343524-1.285736.6329507-1.5347653.5985982-.2490292 1.285736.0343524 1.5347653.6329506 1.0866586 2.6158227 3.7780993 4.3074254 6.856032 4.3074254 3.0107166 0 5.6853533-1.6804 6.8196233-4.310226.2575364-.5947314.948436-.8680818 1.5431673-.6105454.5947314.2575365.8680818.948436.6105454 1.5431674zm7.1052445-20.41386003c8.8764481 8.89415973 8.8764481 23.29350363 0 32.18766333-6.5095053 6.5102072-16.2997568 8.4580207-24.8053886 4.935141-8.50563177-3.5228794-14.05152029-11.822646-14.05152029-21.0289727 0-9.2063268 5.54588847-17.50609325 14.05152029-21.02897274 8.5056318-3.52287948 18.2958833-1.5750659 24.8053886 4.93514111zm-23.2747544-1.23958172c-7.0108814 2.90378076-11.58215449 9.74497485-11.58215449 17.33341335s4.57127314 14.4296326 11.58215449 17.3334133c7.0108813 2.903781 15.0806276 1.2982695 20.4448421-4.0665222 7.3165533-7.3311534 7.3167753-19.2016858.000666-26.53311478-5.3655489-5.36559189-13.4349172-6.97085016-20.4455081-4.06718967z" transform="translate(1.995 1.995)"/></svg>

<?xml version="1.0" encoding="UTF-8"?>
<svg width="50px" height="50px" viewBox="0 0 50 50" version="1.1" xmlns="http://www.w3.org/2000/svg" xmlns:xlink="http://www.w3.org/1999/xlink">
    <!-- Generator: Sketch 52.2 (67145) - http://www.bohemiancoding.com/sketch -->
    <title>012-smiley-bien</title>
    <desc>Created with Sketch.</desc>
    <g id="012-smiley-bien" stroke="none" stroke-width="1" fill="none" fill-rule="evenodd">
        <g id="Group" transform="translate(1.995000, 1.995000)" fill="#000000" fill-rule="nonzero">
            <g id="006-smiley-bien">
                <g id="ICONSET-01">
                    <g id="006-smiley-bien">
                        <path d="M15.2555553,17.3868627 C15.2555553,16.045817 16.3426876,14.9586847 17.6837333,14.9586847 C19.024779,14.9586847 20.1119113,16.045817 20.1119113,17.3868627 C20.1119113,18.7279084 19.024779,19.8150407 17.6837333,19.8150407 C16.3448756,19.8119522 15.2611531,18.7257239 15.2611567,17.3868627 L15.2555553,17.3868627 Z M26.2593747,17.3868627 C26.2593747,16.045817 27.346507,14.9586847 28.6875527,14.9586847 C30.0285984,14.9586847 31.1157307,16.045817 31.1157307,17.3868627 C31.1157307,18.7279084 30.0285984,19.8150407 28.6875527,19.8150407 C27.348695,19.8119522 26.2649724,18.7257239 26.264976,17.3868627 L26.2593747,17.3868627 Z M31.99514,27.3264287 C30.491182,30.8048567 26.970744,33.0509913 23.0330067,33.0509913 C19.0028473,33.0509913 15.4712067,30.7908533 14.0092587,27.298422 C13.7602295,26.6998238 14.0436111,26.012686 14.6422094,25.7636567 C15.2408076,25.5146275 15.9279454,25.7980091 16.1769747,26.3966073 C17.2636333,29.01243 19.955074,30.7040327 23.0330067,30.7040327 C26.0437233,30.7040327 28.71836,29.0236327 29.85263,26.3938067 C30.1101664,25.7990753 30.801066,25.5257249 31.3957973,25.7832613 C31.9905287,26.0407978 32.2638791,26.7316973 32.0063427,27.3264287 L31.99514,27.3264287 Z M39.1003845,6.91256867 C47.9768326,15.8067284 47.9768326,30.2060723 39.1003845,39.100232 C32.5908792,45.6104392 22.8006277,47.5582527 14.2949959,44.035373 C5.78936413,40.5124936 0.243475613,32.212727 0.243475613,23.0064003 C0.243475613,13.8000735 5.78936408,5.50030705 14.2949959,1.97742756 C22.8006277,-1.54545192 32.5908792,0.402361657 39.1003845,6.91256867 Z M15.8256301,5.67298695 C8.8147487,8.57676771 4.24347561,15.4179618 4.24347561,23.0064003 C4.24347561,30.5948388 8.81474875,37.4360329 15.8256301,40.3398136 C22.8365114,43.2435946 30.9062577,41.6380831 36.2704722,36.2732914 C43.5870255,28.942138 43.5872475,17.0716056 36.2711382,9.74017662 C30.9055893,4.37458473 22.836221,2.76932646 15.8256301,5.67298695 Z" id="Combined-Shape"></path>
                    </g>
                </g>
            </g>
        </g>
    </g>
</svg>
